X:516
%%etbk:tnset id:244,pos:1,rep:3x,ant:
%%etbk:wsite http://comhaltas.ie/music/detail/comhaltaslive_266_5_joan_hanrahan_dymphna_osullivan
%%etbk:pldat 2016-07-24T17:06,2015-07-07T11:53,2014-12-31T15:35,2014-12-30T17:34,2014-12-17T19:00,2014-12-16T17:48,2014-09-11T19:05,2014-05-05T19:07,2014-04-30T16:00,2014-03-23T15:59,2014-03-14T18:34,2014-02-12T19:14,2014-02-10T18:38,2014-02-08T14:41,2013-11-20T15:27,2013-11-16T15:50,2013-11-12T18:15,2013-11-06T18:23,2013-11-05T18:24,2013-09-29T14:36,2013-09-26T15:46,2013-09-15T16:57
T: Miss Monaghan
Z: Piano Box Version by Martin Fleischmann
H: Created 2013-09-04 /  Last Modified 2013-09-29
R: reel
M: 4/4
L: 1/8
K: Dmaj
|: "D"!1!D2!2!ED !2!F!4!A!1!Ad | "G"!2!B2B!1!A !2!F!1!ABc | "D"!4!d2dB !1!AB!3!de | !5!fede "A"fee2 |
"D"!1!D2!2!ED !2!F!4!A!1!Ad | "G"!2!B2B!1!A !2!F!1!ABc | "D"!4!d2dB !1!ABdB |1 "A"!1!A!3!F!2!EG !3!F!1!D!4!E!2!C :|2 "A"!1!A!3!F!2!EG "D"!3!F!1!DD2 ||
|: "D"!3!f!4!aab !4!af!1!d!3!f | "A"!4!gefd !2!e!1!d!2!B!3!c | "D"!4!dddB !1!AB!3!de | !3!fede "A"fee2 |
"D"!3!f!4!aab !4!af!1!d!3!f | "A"!4!g2fd !2!e!1!d!2!B!3!c  | "D"!4!d2dB !1!ABdB |1 "A"!1!A!3!F!2!EG "D"!3!F!1!DD2 :|2 "A"!1!A!3!F!2!EG !3!F!1!D!4!E!2!C ||


